X:1
T:Alexander Johnson, 1818 C Major           Arraanged by Ananias Davisson, 1820
T:Isaac Watts, 1717 (Psalm 92, Part 1)                         88. 88. (L. M.)
T:Devotion
T:Transcribed from Supplement to the Kentucky Harmony , 1825; Counter written by B. C. Johnston, 2017.
%%score [ 1 2 3 4 ]
L:1/8
Q:1/4=120
M:4/4
K:C
V:1 treble nm="Tr." snm="Tr."
V:2 treble nm="C." snm="C."
V:3 treble-8 nm="T." snm="T."
V:4 bass nm="B." snm="B."
V:1
"^1.  Sweet  is  the  day    of     sacred   rest,    No  mortal  cares  shall  seize  my  breast;     O   may  my  heart  in   tune   be   found,  Like   David's   harp   of   solemn   sound!\n2.  Sweet is the work, my God, myKing,  To praise thy name, give thanks and sing,  To show  thy  love   by  mor–ning  light,   And   talk   of    all       thy  truth  at  night." G4 c2 e2 | %1
 e4 g4 | e2 c2 e4 || d4 e2 d2 | c4 c4 | G2 A2 G4- | G4 G4 | A2 A2 G4 | A4 c2 ce | d4 g4 || %10
 e2 f2 e4 | g4 c2 c2 | e8 |] %13
V:2
"^3.  My  heart  shall  triumph   in  my  Lord,  And bless his works, and bless his word;  Thy works of grace, how bright they shine! How deep thy counsels! how di – vine!\n4.  Fools never raise their thoughts so high;  Like brutes  they live, like brutes theydie; Like grass they flou–rish, till   thy  breath   Blast  them  in  ev –er –las –ting    death." E4 A2 E2 | %1
 E4 G4 | cB c2 c4 || G4 c2 G2 | E4 F4 | G2 G2 G4- | G4 G4 | E2 A2 d4 | c4 c2 cA | G4 B4 || %10
 A2 AG A4 | G4 A2 B2 | c8 |] %13
V:3
"^5.  But   I   shall   share  a   glorious   part     When grace hath well refined my heart;    And   fresh  sup–plies  of   joy   are     shed,  Like   ho – ly      oil,   to  cheer  my  head.\n6.  Sin,  my worst en–e–my  be – fore,     Shall  vex my eyes  and  ears  no   more;     My  inward   foes      shall    all     be    slain,   Nor   Sa – tan  break   my  peace  a – gain." G4 A2 c2 | %1
 A4 G4 | A2 c2 c4 || G4 c2 d2 | e4 c4 | d2 A2 c4- | c4 c4 | e2 e2 d4 | A4 c2 cA | G4 G4 || %10
 A2 c2 A4 | G4 A2 c2 | c8 |] %13
V:4
"^7.  Then shall  I see, and  hear,  and  know    All  I  de – sired  or  wished  be–low;        And  eve–ry  power  find  sweet  em–ploy  In      that   e  – ter  –  nal   world  of    joy.""^_____________________________________________\nDevotion\n is a folk hymn, first printed in Alexander Johnson, 1818, \nIt appears in over 25 nineteenth-century tunebooks, mostly in Johnson's\noriginal arrangement. This arrangement is by Ananias Davisson, 1820.\nThe tune \"is a pentatonic Ionian melody\" (Music 2005).\nCounter part written by B. C. Johnston, 2017." G,4 C2 C2 | %1
 C4 G,4 | E,F, G,2 C,4 || G,4 A,2 G,2 | C4 F,4 | G,2 G,2 C,4- | C,4 G,4 | A,2 A,2 G,4 | C4 C2 C2 | %9
 G,4 B,4 || C2 A,G, E,4 | G,4 F,2 G,2 | C,8 |] %13

